icons/processwire.svg

<?xml version="1.0" encoding="UTF-8"?>
<svg width="256px" height="256px" viewBox="0 0 256 256" version="1.1" xmlns="http://www.w3.org/2000/svg" xmlns:xlink="http://www.w3.org/1999/xlink" preserveAspectRatio="xMidYMid">
    <g>
        <path d="M234.02346,56.2065308 C226.258185,44.611679 213.340949,31.3634673 200.370381,22.7873303 C173.426584,4.33370224 142.216153,-2.21573572 114.611028,0.642976614 C85.8219124,3.7470262 61.1714319,14.5951995 40.9049183,32.6861551 C22.1317268,49.454423 9.73715371,69.9560838 4.27586162,89.5083961 C-1.24942998,109.060708 -0.513435538,127.162331 1.45988289,140.794549 C3.53986718,154.629436 10.4304818,172.037714 10.4304818,172.037714 C11.8384712,175.376434 13.7904564,176.731123 14.8037821,177.296465 C19.8384108,180.048509 28.105015,177.627137 34.4516337,170.50169 C34.7716313,170.06435 34.9422967,169.45634 34.7716313,168.944332 C33.000978,162.128223 32.3609828,156.997474 31.7316543,153.029411 C30.2916651,145.178619 29.65167,132.026409 30.6116627,119.866214 C31.0916591,113.284776 32.3716494,106.244663 34.6116325,98.8632122 C38.9422665,84.281646 48.0728642,69.0600695 62.3447564,56.4092007 C77.715307,42.7876498 97.4271581,34.3715154 116.16835,32.1954806 C122.738967,31.4061347 135.240206,30.6487893 150.290759,34.3608485 C153.501401,35.1608613 167.282631,38.7555854 182.023853,48.7397449 C192.754438,56.0358614 201.394373,65.0386719 207.346328,73.9454809 C213.404949,82.44695 219.986232,96.783179 221.916885,107.279347 C224.647531,119.226204 224.647531,131.88774 222.706212,144.218603 C220.30623,156.570801 215.975596,168.581659 209.24498,179.152495 C204.605015,187.344626 194.983755,198.171465 183.613174,206.299595 C173.362585,213.510377 161.66134,218.715793 149.650764,221.595839 C143.57081,223.035862 137.469522,223.95321 131.218903,224.15588 C125.661612,224.32655 118.291001,224.15588 113.117706,223.2812 C105.427098,222.054513 103.82711,220.091815 102.067123,217.425106 C102.067123,217.425106 100.840466,215.505075 100.499135,210.36366 C100.616467,163.376243 100.595134,175.920443 100.595134,151.525387 C100.595134,144.63461 100.371136,138.383844 100.435135,132.709086 C100.755133,123.396937 101.54446,116.996835 108.20041,110.063391 C113.01104,104.953976 119.741656,101.87126 127.154934,101.87126 C129.405583,101.87126 137.160191,101.977929 143.97614,107.642019 C151.282751,113.74345 152.509409,122.084916 152.797407,124.314285 C154.461394,137.359827 145.842792,147.077316 142.536151,149.541355 C138.440182,152.613404 134.760209,154.106761 132.274895,154.981442 C126.984268,156.752137 121.170979,157.264145 115.944352,156.922806 C115.144358,156.869472 114.41903,157.392147 114.259031,158.19216 L112.499044,167.322972 C110.781724,174.256417 114.632361,176.795124 116.872345,177.691138 C124.029624,179.899173 130.376243,180.816521 137.896186,180.251179 C149.426765,179.440499 160.797346,174.896427 170.450607,165.893616 C178.663878,158.085492 183.346509,148.453338 184.946497,137.679832 C186.546485,125.722308 184.466501,112.847436 179.015875,101.945928 C173.021254,89.9244028 162.674665,79.8869091 149.042768,74.393488 C135.272206,68.9747348 124.317622,68.7827317 110.195062,72.3881226 L110.035063,72.4414568 C100.861799,75.5988406 93.0111915,79.4922361 84.8405865,87.9297042 C79.2406288,93.7537973 74.6539968,100.804577 71.8593512,108.762037 C69.0860388,116.783498 68.3393778,122.767594 68.2113788,132.069076 C68.0407134,138.959853 68.3713775,145.359955 68.3713775,151.354717 L68.3713775,190.832681 C68.3713775,203.462216 67.9447141,205.648918 68.3713775,212.145022 C68.6060424,216.454424 69.2033713,221.329168 71.091357,226.566585 C73.0326757,232.337344 77.1073116,238.257439 79.9019571,240.988149 C83.8165942,245.158882 88.7978899,248.508269 93.693853,250.588302 C104.904435,255.569715 120.125653,256.359061 132.466893,255.879054 C140.637498,255.569715 148.85077,254.439031 156.904042,252.529667 C173.010587,248.700272 188.477137,241.734828 202.077034,232.070673 C216.658258,221.798509 229.330162,207.782285 236.327442,195.878095 C245.298041,181.733869 251.100664,165.861616 254.119308,149.552022 C256.839287,133.210428 256.711288,116.452827 253.063316,100.356569 C250.183338,85.4229975 242.492729,69.0387358 233.61813,55.8118579 L234.02346,56.2065308 Z" fill="#EB1D61" fill-rule="nonzero"></path>
    </g>
</svg>

<?xml version="1.0" encoding="UTF-8"?>
<svg width="256" height="256" clip-rule="evenodd" fill-rule="evenodd" stroke-linejoin="round" stroke-miterlimit="2" version="1.1" viewBox="0 0 256 256" xml:space="preserve" xmlns="http://www.w3.org/2000/svg" xmlns:cc="http://creativecommons.org/ns#" xmlns:dc="http://purl.org/dc/elements/1.1/" xmlns:rdf="http://www.w3.org/1999/02/22-rdf-syntax-ns#"><metadata><rdf:RDF><cc:Work rdf:about=""><dc:format>image/svg+xml</dc:format><dc:type rdf:resource="http://purl.org/dc/dcmitype/StillImage"/><dc:title/></cc:Work></rdf:RDF></metadata>
    <path d="m234.02 56.208c-7.7653-11.595-20.682-24.842-33.653-33.418-26.944-18.453-58.154-25.002-85.759-22.144-28.789 3.104-53.44 13.952-73.706 32.042-18.773 16.768-31.168 37.269-36.629 56.821-5.5253 19.552-4.7893 37.653-2.816 51.285 2.08 13.835 8.9706 31.242 8.9706 31.242 1.408 3.3386 3.36 4.6933 4.3733 5.2586 5.0346 2.752 13.301 0.33066 19.648-6.7946 0.31999-0.43733 0.49066-1.0453 0.31999-1.5573-1.7706-6.816-2.4106-11.947-3.04-15.915-1.44-7.8506-2.08-21.003-1.12-33.162 0.47999-6.5813 1.76-13.621 4-21.003 4.3306-14.581 13.461-29.802 27.733-42.453 15.371-13.621 35.082-22.037 53.824-24.213 6.5706-0.78933 19.072-1.5467 34.122 2.1653 3.2106 0.79999 16.992 4.3946 31.733 14.379 10.731 7.2959 19.371 16.299 25.322 25.205 6.0586 8.5013 12.64 22.837 14.571 33.333 2.7306 11.947 2.7306 24.608 0.78933 36.938-2.4 12.352-6.7306 24.362-13.461 34.933-4.64 8.1919-14.261 19.019-25.632 27.146-10.251 7.2106-21.952 12.416-33.962 15.296-6.08 1.44-12.181 2.3573-18.432 2.56-5.5573 0.17067-12.928 0-18.101-0.87466-7.6906-1.2267-9.2906-3.1893-11.051-5.856 0 0-1.2266-1.92-1.568-7.0613 0.11733-46.986 0.096-34.442 0.096-58.837 0-6.8906-0.224-13.141-0.16-18.816 0.31999-9.3119 1.1093-15.712 7.7653-22.645 4.8106-5.1093 11.541-8.1919 18.955-8.1919 2.2506 0 10.005 0.10667 16.821 5.7706 7.3066 6.1013 8.5333 14.443 8.8213 16.672 1.664 13.045-6.9546 22.762-10.261 25.226-4.096 3.072-7.7759 4.5653-10.261 5.44-5.2906 1.7707-11.104 2.2826-16.331 1.9413-0.79999-0.0533-1.5253 0.46933-1.6853 1.2693l-1.76 9.1306c-1.7173 6.9333 2.1333 9.4719 4.3733 10.368 7.1573 2.208 13.504 3.1253 21.024 2.56 11.531-0.81066 22.901-5.3546 32.554-14.357 8.2133-7.8079 12.896-17.44 14.496-28.213 1.6-11.957-0.48-24.832-5.9306-35.733-5.9946-12.021-16.341-22.058-29.973-27.552-13.771-5.4186-24.725-5.6106-38.848-2.0053l-0.16 0.05333c-9.1733 3.1573-17.024 7.0506-25.194 15.488-5.6 5.824-10.187 12.875-12.981 20.832-2.7733 8.0213-3.52 14.005-3.648 23.306-0.17066 6.8906 0.16 13.291 0.16 19.285v39.477c0 12.629-0.42666 14.816 0 21.312 0.23466 4.3093 0.83199 9.1839 2.72 14.421 1.9413 5.7706 6.0159 11.691 8.8106 14.421 3.9146 4.1706 8.8959 7.52 13.792 9.5999 11.211 4.9813 26.432 5.7706 38.773 5.2906 8.1706-0.30933 16.384-1.44 24.437-3.3493 16.107-3.8293 31.573-10.795 45.173-20.459 14.581-10.272 27.253-24.288 34.25-36.192 8.9706-14.144 14.773-30.016 17.792-46.325 2.72-16.341 2.592-33.098-1.056-49.194-2.88-14.933-10.571-31.317-19.445-44.544z" fill="#1f80e7" fill-rule="nonzero" stroke-width="10.667"/>
    
    
</svg>
